!!!COM:	Johannes Ockeghem
!!!CDT:	~1425-1497/02/06
!!!OTL:	Se vostre cuer
!!!AGN:	Chanson
!!!SCT:	Ock3020
!!!SCA:	Ock3020
!!!voices:	3
**kern	**kern	**kern
*staff3	*staff2	*staff1
*Ivox	*Ivox	*Ivox
*I"Contra	*I"Tenor	*I"Discantus
*I'C	*I'T	*I'D
*clefF4	*clefGv2	*clefG2
*k[b-e-]	*k[b-]	*k[b-]
*M2/1	*M2/1	*M2/1
*met(C|)	*met(C|)	*met(C|)
!!incipit: 6
=1-	=1-	=1-
!!LO:TX:Z=15:t=Form&colon; rondeau
0BB-	0B-	0f
=2	=2	=2
1BB-	1B-	1d
1C	1G	1e-
=3	=3	=3
1FF	1A	1c
[1BB-	2.B-\	1B-
.	4A/	.
=4	=4	=4
1BB-]	2.F/	1d
.	4G/	.
[1F	1A	1c
=5	=5	=5
1F]	2A/	0f
.	4B-\	.
.	4c\	.
1D	1d	.
=6	=6	=6
0E-	2c\	0g
.	1B-	.
.	4A/	.
.	4G/	.
=7	=7	=7
1F	[0F	0a
1FF	.	.
=8	=8	=8
2r	1F]	1r
1F	.	.
.	1D	1f
[2B-\	.	.
=9	=9	=9
2B-\]	1E-	1g
2G\	.	.
1A	1D	1f
=10	=10	=10
1B-	1BB-	1d
1BB-	1B-	1d
=11	=11	=11
1C	1G	1e-i
2BB-/	1A	1e-i
2C/	.	.
=12	=12	=12
0BB-	2.B-\	2.d/
.	4c\	4e-i/
.	1d	2f/
.	.	[2B-/
=13	=13	=13
2E-\	2G/	2B-/]
2D\	2F/	2.f/
1BB-	1B-	.
.	.	8e-i/L
.	.	8f/J
.	.	2g/
=14	=14	=14
2r	2c\	2e-i/
2BB-/	1d	1f
2D\	.	.
2E-\	4c\	2d/
.	4B-\	.
=15	=15	=15
[0F	1A	1c
.	1r	1c
=16	=16	=16
1F]	1A	1f
1r	1B-	1g
=17	=17	=17
1F	1c	1a
1BB-	1d	1f
=18	=18	=18
1E-	2B-\	1g
.	2c\	.
2.D\	1d	1f
8E-\L	.	.
8F\J	.	.
=19	=19	=19
2G\	2r	1b-
2E-\	2G/	.
2F\	2F/	2a/
2G\	[2B-\	2f/
=20	=20	=20
1E-	2B-\]	1g
.	2c\	.
2.D\	1d	2f/
.	.	2b-\
4BB-/	.	.
=21	=21	=21
2F\	1c	2a/
1E-	.	2.g/
.	2B-\	.
.	.	4f/
2F\	2A/	[2f/
=22	=22	=22
1C	1G	2f/]
.	.	2e/
2r	1F	1f
[2D\	.	.
=23	=23	=23
2D\]	2BB-/	2d/
2C/	2C/	2.e-i/
2BB-/	2D/	.
.	.	4d/
4AA/	2E/	4c/
4GG/	.	4B-/
=24	=24	=24
0FF;	0F;	0A;
=25	=25	=25
0F	0c	0a
=26	=26	=26
1F	1.c	1a
1F	.	1a
.	4B-\	.
.	4A/	.
=27	=27	=27
0E-	0G	0b-
=28	=28	=28
1E-	1G	1b-
1F	1F	1a
=29	=29	=29
0C	2E/	0g
.	1E	.
.	4D/	.
.	4E/	.
=30	=30	=30
2r	2.F/	1a
1F	.	.
.	4G/	.
.	2A/	2f/
[2E-\	2B-\	[2g/
=31	=31	=31
4E-\]	1G	4g/]
4D\	.	4f/
2C/	.	2e-i/
2D\	2F/	2d/
[2GG/	2G/	[2e-i/
=32	=32	=32
4GG/]	1D	2e-/]
4AA/	.	.
2BB-/	.	2.d/
2C/	1E-i	.
.	.	4B-/
2AA/	.	2c/
=33	=33	=33
2BB-/	2.D/	1d
2D\	.	.
.	4BB-/	.
2E-\	2C/	2r
2F\	2D/	2B-/
=34	=34	=34
2G\	2E-i/	2c/
2A\	2F/	2d/
2B-\	2G/	2e-i/
2r	2A/	[2f/
=35	=35	=35
1BB-	2F/	2f/]
.	1B-	2d/
1F	.	1c
.	2A/	.
=36	=36	=36
1BB-	1B-	1B-
2E-\	2c\	1r
2F\	[2d\	.
=37	=37	=37
1G	2d\]	1B-
.	4c\	.
.	4B-\	.
2F\	1A	1f
[2D\	.	.
=38	=38	=38
2D\]	1B-	1d
2BB-/	.	.
1C	1G	1e
=39	=39	=39
1FF	2r	1f
.	2F/	.
2r	2D/	1B-
2GG/	[2E/	.
=40	=40	=40
2AA/	2E/]	2c/
2FF/	2F/	2d/
2C/	2G/	2e/
[2D\	2F/	[2f/
=41	=41	=41
4D\]	1B-	4f/]
4BB-/	.	8e/L
.	.	8f/J
2E-\	.	2g/
4D\	2c\	2a/
4C/	.	.
[2BB-/	[2d\	[2b-\
=42	=42	=42
2BB-/]	2d\]	4b-\]
.	.	8a/L
.	.	8b-/J
1F	2.c\	2cc\
.	.	2a/
.	4A/	.
2E-\	2B-\	[2g/
=43	=43	=43
1D	1F	2g/]
.	.	1f
1C	1G	.
.	.	2e/
=44	=44	=44
0FFl	0Fl	0fl
==	==	==
*-	*-	*-
!!!RDF**kern: l=long note in original notation
!!!RDF**kern: i=editorial accidental
!!!RDF**kern: V=start of tuplet marker
!!!RDF**kern: Z=end of tuplet marker
!!!ENC:	Chris Gage 06-25-2012
!!!END:	2012/06/25/
!!!EED:	Jesse Rodin
!!!EEV:	2012/08/16/
!!!ONB:	Translated from MusicXML and edited on 2012/08/16/ by Craig Sapp
!!muse2ps: C^@{COM}^i2I150v85,85,150Q16
